src/assets/filled/Woman.svg

<?xml version="1.0" encoding="UTF-8"?>
<svg width="24" height="24" viewBox="0 0 24 24" xmlns="http://www.w3.org/2000/svg">
 <path d="m19 9c0-3.87-3.13-7-7-7s-7 3.13-7 7c0 3.62 2.74 6.59 6.25 6.96v2.29h-2.25c-0.41 0-0.75 0.34-0.75 0.75s0.34 0.75 0.75 0.75h2.25v2.25c0 0.41 0.34 0.75 0.75 0.75s0.75-0.34 0.75-0.75v-2.25h2.25c0.41 0 0.75-0.34 0.75-0.75s-0.34-0.75-0.75-0.75h-2.25v-2.29c3.51-0.37 6.25-3.34 6.25-6.96z"/>
</svg>

<svg width="24" height="24" viewBox="0 0 24 24"  xmlns="http://www.w3.org/2000/svg">
<path d="M19 9C19 5.13 15.87 2 12 2C8.13 2 5 5.13 5 9C5 12.62 7.74 15.59 11.25 15.96V18.25H9C8.59 18.25 8.25 18.59 8.25 19C8.25 19.41 8.59 19.75 9 19.75H11.25V22C11.25 22.41 11.59 22.75 12 22.75C12.41 22.75 12.75 22.41 12.75 22V19.75H15C15.41 19.75 15.75 19.41 15.75 19C15.75 18.59 15.41 18.25 15 18.25H12.75V15.96C16.26 15.59 19 12.62 19 9Z" />
</svg>
